X:1
T:Title
%%score { 1 | ( 2 3 ) }
L:1/8
M:3/4
K:G
V:1 treble nm="Grand Piano"
V:2 treble 
V:3 treble 
V:1
 z2 z2[Q:1/4=94] GA | B3 G FA | A G3 GG | A3 A [Fd]>[DAc] |[M:2/4] B4 |[M:1/4] Bc | %6
[M:3/4] d3 B G[=Fd] | [=Fd] [Ec]3 B_B | B3 G AA |[M:2/4] [B,DG]4 |[M:1/4] Bc |[M:3/4] d3 B GA | %12
 B B3 [FA][GB] | [Ac]3 [FA] [Fd]>[DAc] |[M:2/4] [DGB]4 |[M:1/4] [DGB][CFA] | %16
[M:3/4] [B,EG]3 [DFA] [DGB][=Fd] | [=Fd] [Ec]3 B_B | B3 G [CFA][CFA] |[M:2/4] [B,G]4 |] %20
V:2
 z2 z2 [G,B,D][G,CD] | [G,DG]3[K:bass] [G,D] [D,CD][D,CD] | [G,CD] [G,B,D]3 [G,B,D][G,B,D] | %3
 [D,CD]3 [D,CD] A,-[E,A,]/F,/ |[M:2/4][K:treble] [G,DG]4 |[M:1/4] [G,G][G,A,G] | %6
[M:3/4] [G,B,G]3 [G,DG][K:bass] [G,B,D][B,,G,] | [C,G,] [C,G,]3 [D,G,D][E,G,^C] | %8
 [D,G,D]3 [D,B,D] [D,CD][D,CD] |[M:2/4] [G,,G,]4 |[M:1/4][K:treble] [G,D][G,A,D] | %11
[M:3/4] [G,B,G]3 [G,DG] [G,B,D][G,CD] | [G,DG] [G,DG]3[K:bass] [D,D][D,D] | %13
 [D,D]3 [D,D] A,-[E,A,]/F,/ |[M:2/4] G,4 |[M:1/4] D,^D, |[M:3/4] E,3 D, G,[B,,G,] | %17
 [C,G,] [C,G,]3 [D,G,D][E,G,^C] | [D,G,D]3 [D,B,D] D,D, |[M:2/4] G,,4 |] %20
V:3
 x6 | x3[K:bass] x3 | x6 | z2 z2 .D,2 |[M:2/4][K:treble] x4 |[M:1/4] x2 |[M:3/4] x4[K:bass] x2 | %7
 x6 | x6 |[M:2/4] x4 |[M:1/4][K:treble] x2 |[M:3/4] x6 | x4[K:bass] x2 | z2 z2 .D,2 |[M:2/4] x4 | %15
[M:1/4] x2 |[M:3/4] x6 | x6 | x6 |[M:2/4] x4 |] %20

